X:1
T:Myra's Jig $1(\2511991 Ian Lowthian and Acoustic Radio)
M:6/8
L:1/8
R:jig
K:A
"A"c>BA AfA|eAf ecA|c>BA "C#m/G#"ECE|"F#m"F3-"D"F2 e|
"A"c>BA "D"AfA|"A"eAf "F#m"afe|"Bm"c>BA "E7"FEF|1"A"A3- A2 e:|\
[2"A"A3-A2 f||
|:"A"e2-e/f/-f2 a-|afe cBA|e2f-"F#m" feA|"Bm"cBB "E7"B2f|
"A"e2-e/"E/G#"f/-f2 "F#m"a-|afe cBA|"Bm"B>Ac "E7" BAF|1"A"A3- A2f:|\
[2 "A"A3 z2e||
%%scale .5
%%text 4/25/13 

#include "LeftHeader.h"
%%text Set 114 NEFFA 2013 Irish Set
%%scale .9
$SmallLMargin
$SmallRMargin
